X:1
T: The Humors of Mullinafauna
T: The Little Bag of Meal
R:Jig
Q:180
K:D
M:6/8
L:1/16
de|f2e2d2 c2A2G2|A2B2A2 c2A2G2|F4D2 D2E2D2|F4A2 G2E2D2|A2B2A2 c2A2G2|A2B2A2 A4e2|f2e2d2 e2c2A2|d2e2d2 d4de|
f2e2d2 c2A2G2|A2B2A2 c2A2G2|F4D2 D2E2D2|F4A2 G2E2D2|A2B2A2 c2A2G2|A2B2A2 A4e2|f2e2d2 e2c2A2|d2e2d2 d4de|
f4d2 d2c2d2|f4g2 a2g2f2|e4c2 c2d2c2|e4f2 g2e2c2|f4g2 a2f2d2|e4f2 g2e2c2|f2e2d2 e2c2A2|d2e2d2 d4de|
f4d2 d2c2d2|f4g2 a2g2f2|e4c2 c2d2c2|e4f2 g2e2c2|f4g2 a2f2d2|e4f2 g2e2c2|f2e2d2 e2c2A2|d2e2d2 d4||
